X:4
T:Rupert's Dance
T:Donkey Riding
M:4/4
L:1/8
Q:180
Z:Brian Martin
K:G
"(Donkey Riding)"
G2GAB2B2|c2A2B4|B2A2A2GA|B2A2A4|G2GAB2B2|c2A2B4|B2A2d2d2|G4d4|]!
e4d4|c2d2B4|B2A2A2GA|B2A2A4|e4d4|c2d2B4|B2A2d2d2|G4G4|]
